images/bg_image.svg

<svg width="758" height="495" viewBox="0 0 758 495" fill="none" xmlns="http://www.w3.org/2000/svg">
<g opacity="0.2">
<path d="M174.935 491.198C332.181 485.103 410.064 491.459 567.396 494.637C575.733 494.811 651.918 500.754 691.186 457.089C716.98 428.421 739.966 397.382 750.414 358.201C760.862 319.042 760.405 286.326 749.152 247.863C739.095 213.471 708.861 186.045 656.641 214.538C637.182 225.16 609.102 213.319 596.738 192.553C583.068 169.589 599.372 115.802 598.262 88.1362C596.194 37.3318 550.091 0.240681 505.142 0.00124316C460.193 -0.238195 422.405 34.1321 413.72 84.0441C409.128 110.448 412.697 137.983 408.279 164.43C403.86 190.877 369.947 217.498 346.155 218.021C326.5 218.456 310.327 200.411 300.074 181.43C289.822 162.449 282.574 140.813 268.316 125.489C247.42 103.068 213.659 99.2375 187.865 113.734C162.071 128.231 130.987 148.801 127.244 181.104C123.5 213.406 122.215 241.507 138.649 268.259C144.048 277.053 150.578 287.588 146.986 297.492C144.309 304.828 136.821 308.506 129.812 309.072C104.214 311.14 109.569 299.06 88.3457 282.756C62.8782 263.166 22.2825 262.469 6.28369 292.246C-6.36304 315.798 1.88678 346.795 15.0777 369.955C53.366 437.107 108.306 493.788 174.935 491.198Z" fill="url(#paint0_linear)"/>
<path d="M173.15 48.9119C175.849 48.8466 179.484 49.1731 187.321 47.3011C194.068 45.6904 195.679 41.424 194.961 39.2908C194.221 37.0488 191.282 33.3702 188.648 32.5648C182.51 30.7146 179.158 30.6058 171.735 31.8247C176.415 30.6275 177.787 29.7133 180.573 27.1013C182.358 25.4252 182.118 21.3112 180.333 20.0052C174.195 15.4558 168.405 17.6326 159.916 21.05C164.487 18.8733 164.574 18.4815 166.402 16.8272C167.795 15.5647 168.753 13.6927 168.448 12.0166C167.991 9.49164 162.31 7.3367 159.197 7.05373C152.319 6.44425 147.03 7.79382 140.695 10.0576C134.361 12.3214 129.007 17.0449 128.245 22.6825C127.918 19.0474 123.195 16.2612 118.776 16.6966C114.357 17.1319 110.722 20.2881 109.786 23.8579C108.85 27.4277 110.287 31.237 112.986 34.1538C108.915 33.0872 105.672 31.4764 101.536 32.3471C97.4006 33.2178 92.6772 36.3958 94.0921 41.7288C94.4839 43.2525 97.1394 48.0194 104.105 48.8248C115.489 50.1744 118.406 50.2397 131.031 49.8914L173.15 48.9119Z" fill="url(#paint1_linear)"/>
<path d="M711.672 103.721C714.132 103.656 717.462 104.026 724.646 101.915C730.806 100.108 732.286 95.3411 731.633 92.9468C730.936 90.4435 728.281 86.3296 725.843 85.4371C720.227 83.3692 717.158 83.2604 710.345 84.6099C714.633 83.2822 715.895 82.2591 718.42 79.3205C720.053 77.4486 719.835 72.8557 718.202 71.3973C712.587 66.3038 707.297 68.7417 699.505 72.5727C703.684 70.1566 703.771 69.7212 705.447 67.871C706.709 66.4779 707.602 64.3665 707.319 62.4946C706.905 59.6648 701.703 57.2487 698.852 56.9439C692.561 56.2692 687.707 57.7711 681.895 60.2961C676.083 62.8211 671.186 68.0887 670.511 74.3794C670.228 70.309 665.896 67.1963 661.847 67.6969C657.799 68.1758 654.468 71.702 653.619 75.6854C652.749 79.6688 654.077 83.9352 656.536 87.1784C652.792 86.003 649.854 84.1964 646.045 85.1541C642.257 86.1119 637.947 89.6599 639.231 95.6241C639.601 97.3219 642.018 102.633 648.417 103.569C658.822 105.071 661.499 105.158 673.058 104.766L711.672 103.721Z" fill="url(#paint2_linear)"/>
</g>
<defs>
<linearGradient id="paint0_linear" x1="378.967" y1="-49.5" x2="378.967" y2="495" gradientUnits="userSpaceOnUse">
<stop stop-color="#00B59C"/>
<stop offset="1" stop-color="#8EF8AB"/>
</linearGradient>
<linearGradient id="paint1_linear" x1="144.477" y1="2.59103" x2="144.477" y2="50.0702" gradientUnits="userSpaceOnUse">
<stop stop-color="#00B59C"/>
<stop offset="1" stop-color="#8EF8AB"/>
</linearGradient>
<linearGradient id="paint2_linear" x1="685.387" y1="51.9642" x2="685.387" y2="104.965" gradientUnits="userSpaceOnUse">
<stop stop-color="#00B59C"/>
<stop offset="1" stop-color="#8EF8AB"/>
</linearGradient>
</defs>
</svg>

<svg xmlns="http://www.w3.org/2000/svg" width="758" height="495" fill="none" xmlns:v="https://vecta.io/nano"><g opacity=".2"><path d="M174.935 491.198c157.246-6.095 235.129.261 392.461 3.439 8.337.174 84.522 6.117 123.79-37.548 25.794-28.668 48.78-59.707 59.228-98.888 10.448-39.159 9.991-71.875-1.262-110.338-10.057-34.392-40.291-61.818-92.511-33.325-19.459 10.622-47.539-1.219-59.903-21.985-13.67-22.964 2.634-76.751 1.524-104.417C596.194 37.332 550.091.241 505.142.001s-82.737 34.131-91.422 84.043c-4.592 26.404-1.023 53.939-5.441 80.386s-38.332 53.068-62.124 53.591c-19.655.435-35.828-17.61-46.081-36.591s-17.5-40.617-31.758-55.941c-20.896-22.421-54.657-26.252-80.451-11.755s-56.878 35.067-60.621 67.37-5.029 60.403 11.405 87.155c5.399 8.794 11.929 19.329 8.337 29.233-2.677 7.336-10.165 11.014-17.174 11.58-25.598 2.068-20.243-10.012-41.466-26.316-25.467-19.59-66.063-20.287-82.062 9.49-12.647 23.552-4.397 54.549 8.794 77.709 38.288 67.152 93.228 123.833 159.857 121.243z" fill="url(#A)"/><path d="M173.15 48.912c2.699-.065 6.334.261 14.171-1.611 6.747-1.611 8.358-5.877 7.64-8.01-.74-2.242-3.679-5.921-6.313-6.726-6.138-1.85-9.49-1.959-16.913-.74 4.68-1.197 6.052-2.111 8.838-4.723 1.785-1.676 1.545-5.79-.24-7.096-6.138-4.549-11.928-2.373-20.417 1.045 4.571-2.177 4.658-2.568 6.486-4.223 1.393-1.263 2.351-3.135 2.046-4.811-.457-2.525-6.138-4.68-9.251-4.963-6.878-.609-12.167.74-18.502 3.004s-11.688 6.987-12.45 12.625c-.327-3.635-5.05-6.421-9.469-5.986s-8.054 3.592-8.99 7.161.501 7.379 3.2 10.296c-4.071-1.067-7.314-2.677-11.45-1.807s-8.859 4.049-7.444 9.382c.392 1.524 3.047 6.291 10.013 7.096 11.384 1.35 14.301 1.415 26.926 1.067l42.119-.979z" fill="url(#B)"/><path d="M711.672 103.721c2.46-.065 5.79.305 12.974-1.806 6.16-1.807 7.64-6.574 6.987-8.968-.697-2.503-3.352-6.617-5.79-7.51-5.616-2.068-8.685-2.177-15.498-.827 4.288-1.328 5.55-2.351 8.075-5.289 1.633-1.872 1.415-6.465-.218-7.923-5.615-5.094-10.905-2.656-18.697 1.175 4.179-2.416 4.266-2.852 5.942-4.702 1.262-1.393 2.155-3.504 1.872-5.376-.414-2.83-5.616-5.246-8.467-5.551-6.291-.675-11.145.827-16.957 3.352s-10.709 7.793-11.384 14.083c-.283-4.07-4.615-7.183-8.664-6.683-4.048.479-7.379 4.005-8.228 7.989-.87 3.983.458 8.25 2.917 11.493-3.744-1.175-6.682-2.982-10.491-2.024-3.788.958-8.098 4.506-6.814 10.47.37 1.698 2.787 7.009 9.186 7.945 10.405 1.502 13.082 1.589 24.641 1.197l38.614-1.045z" fill="url(#C)"/></g><defs><linearGradient id="A" x1="378.967" y1="-49.5" x2="378.967" y2="495" gradientUnits="userSpaceOnUse"><stop stop-color="#00b59c"/><stop offset="1" stop-color="#8ef8ab"/></linearGradient><linearGradient id="B" x1="144.477" y1="2.591" x2="144.477" y2="50.07" gradientUnits="userSpaceOnUse"><stop stop-color="#00b59c"/><stop offset="1" stop-color="#8ef8ab"/></linearGradient><linearGradient id="C" x1="685.387" y1="51.964" x2="685.387" y2="104.965" gradientUnits="userSpaceOnUse"><stop stop-color="#00b59c"/><stop offset="1" stop-color="#8ef8ab"/></linearGradient></defs></svg>
